icons/24x24_phone_outline.svg

<svg xmlns="http://www.w3.org/2000/svg" width="24" height="24" viewBox="0 0 24 24">
  <path d="M5.19933464,7.94632993 C5.11519947,8.03419386 5.02067775,8.23613126 5.00484906,8.37269881 C4.99700432,8.43937438 4.99417795,8.59506834 5.01503045,8.82887553 C5.05130976,9.23565488 5.1487129,9.70693147 5.32684826,10.2370958 C5.85421024,11.8066242 6.95388856,13.529562 8.80838199,15.3526988 C10.3751976,16.8928431 11.869668,17.8961534 13.2617581,18.4682672 C14.1974276,18.8528037 14.971788,19 15.5600372,19 C15.683716,19 15.7641844,18.9937263 15.8024124,18.9877201 C15.9318583,18.9679964 16.1267733,18.866482 16.2108293,18.7784559 L18.9878562,15.840131 C19.0008124,15.8174079 18.991004,15.8038788 18.9378766,15.7742483 L15.9839118,14.0724515 C15.9412637,14.0544359 15.9145464,14.0495 15.8876604,14.0495 C15.814976,14.0495 15.7456775,14.0787429 15.7224694,14.1028692 L13.5005203,16.471038 L12.1331744,15.699148 C11.5114685,15.3481844 10.8147193,14.8115486 10.0429632,14.0527395 C9.23327711,13.2568798 8.66698921,12.5374319 8.30359508,11.8962885 L7.57842635,10.6168591 L8.58350279,9.54325277 L9.65157723,8.40248803 C9.70043415,8.35129471 9.72452615,8.19977136 9.7109011,8.16920479 L7.9986632,5.01835974 C7.9923573,5.00611991 7.05924778,5.98210998 5.19933464,7.94632993 Z M6.52699802,3.6354 C6.91942579,3.225 7.4396626,3 7.99320177,3 C8.75015533,3 9.42700322,3.4212 9.77802806,4.1052 L11.4494463,7.1751 L11.4962496,7.2678 C11.8859772,8.094 11.7185654,9.1335 11.0984215,9.7833 L10.0435468,10.9101 C10.2460612,11.2674 10.6510898,11.8461 11.444946,12.6264 C12.1991994,13.368 12.7608391,13.7568 13.1163643,13.9575 L14.2639455,12.7344 C14.6797749,12.2997 15.2720168,12.0495 15.8876604,12.0495 C16.2305846,12.0495 16.5699086,12.1287 16.9191334,12.3024 L16.9659367,12.3303 L19.9361468,14.0412 C20.4797853,14.3391 20.8641125,14.8674 20.97032,15.4695 C21.0810279,16.0995 20.8776135,16.7574 20.4338821,17.2218 L17.6643861,20.1522 C17.2683581,20.5671 16.6707158,20.8785 16.1036757,20.9649 C16.0181696,20.9784 15.8345566,21 15.5600372,21 C14.3998551,21 11.2820345,20.5887 7.40636024,16.779 C2.70262741,12.1548 2.97174645,8.5368 3.01854977,8.139 C3.08425442,7.572 3.3695746,6.9654 3.75480186,6.5631 L6.52699802,3.6354 Z"/>
</svg>

<svg width="24" height="24" fill="none" xmlns="http://www.w3.org/2000/svg"><path d="M5.2 7.946a.904.904 0 0 0-.195.427c-.008.066-.01.222.01.456.036.407.134.878.312 1.408.527 1.57 1.627 3.293 3.481 5.116 1.567 1.54 3.062 2.543 4.454 3.115.935.385 1.71.532 2.298.532.124 0 .204-.006.242-.012a.876.876 0 0 0 .409-.21l2.777-2.938c.013-.023.003-.036-.05-.066l-2.954-1.701a.232.232 0 0 0-.096-.024.263.263 0 0 0-.165.054L13.5 16.47l-1.367-.772c-.621-.35-1.318-.887-2.09-1.646-.81-.796-1.376-1.516-1.74-2.157l-.725-1.28 1.006-1.073 1.068-1.14a.355.355 0 0 0 .059-.234L7.999 5.02c-.007-.013-.94.963-2.8 2.927Zm1.327-4.31a1.996 1.996 0 0 1 3.251.47l1.671 3.07.047.092c.39.826.223 1.865-.398 2.515l-1.055 1.127c.203.357.608.936 1.402 1.716.754.742 1.316 1.13 1.671 1.332l1.148-1.224a2.255 2.255 0 0 1 2.655-.432l.047.028 2.97 1.711c.544.298.928.826 1.034 1.428a2.043 2.043 0 0 1-.536 1.753l-2.77 2.93a2.856 2.856 0 0 1-1.56.813 3.7 3.7 0 0 1-.544.035c-1.16 0-4.278-.411-8.154-4.221-4.703-4.624-4.434-8.242-4.387-8.64a2.875 2.875 0 0 1 .736-1.576l2.772-2.928Z" fill="#000"/></svg>
